assets/logo.svg

<?xml version="1.0" encoding="UTF-8" standalone="no"?>
<svg
   xmlns:svg="http://www.w3.org/2000/svg"
   xmlns="http://www.w3.org/2000/svg"
   id="svg8"
   version="1.1"
   viewBox="0 0 263.31104 119.92635"
   height="119.92635mm"
   width="263.31104mm">
  <defs
     id="defs4571" />
  <g
     transform="translate(50.712433,-79.908707)"
     id="layer1">
    <path
       id="rect4599"
       d="M -50.712433,79.908707 H 212.5986 V 199.83506 H -50.712433 Z"
       style="color:#000000;display:inline;overflow:visible;visibility:visible;opacity:1;fill:#1c4a3b;fill-opacity:1;fill-rule:nonzero;stroke:none;stroke-width:1.7333498;stroke-linecap:round;stroke-linejoin:round;stroke-miterlimit:4;stroke-dasharray:none;stroke-dashoffset:0;stroke-opacity:1;marker:none;enable-background:accumulate" />
    <path
       id="rect4550"
       transform="matrix(0.26458333,0,0,0.26458333,-50.712433,79.908707)"
       d="m 446.51172,75.519531 c -8.32803,0 -15.12109,6.78915 -15.1211,15.117188 v 4.658203 c 0,8.327998 6.79336,15.115238 15.12139,15.115238 h 3.402 l 5e-5,236.3125 c 1.5e-4,1.50871 1.22371,2.73227 2.73242,2.73242 h 119.02149 c 1.56181,15.85001 14.96505,28.28906 31.2168,28.28906 16.2517,0 29.65824,-12.43905 31.2207,-28.28906 h 116.95508 c 1.50871,-1.5e-4 2.73227,-1.22371 2.73242,-2.73242 l 5e-5,-236.3125 h 3.469 c 8.32804,0 15.12079,-6.78724 15.12079,-15.115238 v -4.658203 c 0,-8.328038 -6.79305,-15.117188 -15.12109,-15.117188 z m 0,5.464844 h 310.75 c 5.39565,0 9.6582,4.256728 9.6582,9.652344 v 4.658203 c 0,5.395578 -4.26255,9.652348 -9.6582,9.652348 h -6.20117 -298.41407 -6.13476 c -5.39562,0 -9.6582,-4.25677 -9.6582,-9.652348 v -4.658203 c 0,-5.395616 4.26258,-9.652344 9.6582,-9.652344 z m 169.23633,95.296875 h 23.76757 v 94.58008 h -23.76757 z m -123.20899,11.91406 h 15.56055 v 13.79883 h 16.89844 v 17.80859 h -16.89844 v 26.80665 c 0,4.45745 2.14796,6.68554 6.44336,6.68554 3.20128,0 7.0308,-0.79072 11.48828,-2.37109 v 17.32422 c -3.20129,1.37776 -6.26011,2.35063 -9.17773,2.91797 -2.87711,0.60782 -6.26023,0.9121 -10.1504,0.9121 -7.98292,0 -13.7382,-1.94577 -17.26367,-5.83593 -3.52546,-3.93069 -5.28711,-9.94822 -5.28711,-18.05274 v -28.38672 h -8.32812 v -9.66406 l 10.57617,-7.47656 z m -227.66797,12.58203 c -7.78034,0 -13.87991,3.32303 -18.29687,9.96875 h -1.09375 l -3.3418,-8.75195 h -19.33008 v 98.77344 h 23.76563 v -27.65625 c 0,-1.17516 -0.36434,-4.17392 -1.09375,-8.9961 h 1.09375 c 2.71501,2.99868 5.45149,5.08464 8.20703,6.25977 2.75554,1.13464 5.87443,1.70312 9.35937,1.70312 7.73982,0 13.85942,-3.18091 18.35743,-9.54296 4.53853,-6.40255 6.80859,-15.15658 6.80859,-26.25977 0,-11.02216 -2.16799,-19.69411 -6.50391,-26.01562 -4.33591,-6.32154 -10.31339,-9.48243 -17.93164,-9.48243 z m 79.50586,0 c -3.60651,0 -7.19377,1.13502 -10.75976,3.4043 -3.52547,2.22874 -6.28002,5.16741 -8.26563,8.81445 h -1.15625 l -3.70703,-11.00195 h -17.6875 v 68.86719 h 23.76563 v -33.85547 c 0,-4.4575 1.17508,-7.86258 3.52539,-10.21289 2.35031,-2.39083 6.11974,-3.58594 11.30664,-3.58594 3.44442,0 6.1389,0.2442 8.08398,0.73047 l 2.12696,-22.42969 -1.3379,-0.24414 c -1.86404,-0.32418 -3.82788,-0.48633 -5.89453,-0.48633 z m 47.77539,0 c -10.90057,0 -19.28828,3.12085 -25.16406,9.36133 -5.87577,6.19996 -8.81445,15.11416 -8.81445,26.74414 0,11.26529 3.1609,19.95727 9.48242,26.07617 6.36205,6.07839 15.2782,9.11914 26.74609,9.11914 5.51107,0 10.25144,-0.36435 14.22266,-1.09374 3.97121,-0.7294 7.82075,-2.0466 11.54883,-3.95118 v -17.08008 c -4.09278,1.90456 -7.90227,3.26181 -11.42774,4.07227 -3.48494,0.76992 -7.31445,1.1543 -11.48828,1.1543 -4.57905,0 -8.20441,-1.09499 -10.8789,-3.28321 -2.63397,-2.18822 -4.03322,-5.20701 -4.19532,-9.05664 h 42.48829 v -10.57617 c 0,-10.17116 -2.83661,-17.95034 -8.50977,-23.33984 -5.63264,-5.43005 -13.63598,-8.14649 -24.00977,-8.14649 z m 179.65039,0 c 8.83394,0 15.66221,2.18802 20.48438,6.56446 4.86271,4.37644 7.29297,10.49603 7.29297,18.35742 v 45.16211 h -16.47266 l -4.55859,-9.11719 h -0.48633 c -3.20129,3.97123 -6.46231,6.68571 -9.78516,8.14453 -3.32285,1.4588 -7.61878,2.18945 -12.88672,2.18945 -6.48359,0 -11.59028,-1.94577 -15.31835,-5.83593 -3.72808,-3.89017 -5.5918,-9.36118 -5.5918,-16.41211 0,-7.33458 2.55236,-12.78363 7.6582,-16.34961 5.10585,-3.60653 12.5026,-5.63239 22.1875,-6.07813 l 11.48828,-0.36523 v -0.97266 c 0,-5.67314 -2.79656,-8.50976 -8.38867,-8.50976 -5.0248,0 -11.40667,1.70157 -19.14648,5.10547 l -6.86914,-15.68164 c 8.02347,-4.13332 18.15476,-6.20118 30.39257,-6.20118 z m 77.86329,1.2168 h 26.98828 l 10.45508,19.32813 10.69726,-19.32813 h 27.04883 l -21.57813,33.73438 22.42969,35.13281 h -26.98828 l -11.60937,-20.90821 -11.54883,20.90821 h -27.04883 l 22.18555,-35.13281 z m -256.66211,14.95313 c 3.03919,0 5.44942,0.9929 7.23242,2.97851 1.82353,1.98561 2.77639,4.63808 2.85742,7.96094 h -20.42383 c 0.32418,-3.76862 1.41916,-6.52316 3.2832,-8.26563 1.90457,-1.783 4.25473,-2.67382 7.05079,-2.67382 z m -136.82422,2.49218 c 3.20128,0 5.48942,1.29521 6.86719,3.88867 1.37776,2.55292 2.0664,6.78879 2.0664,12.70508 0,6.03787 -0.68864,10.37386 -2.0664,13.00782 -1.37777,2.59346 -3.58581,3.88867 -6.625,3.88867 -3.4039,0 -5.89619,-1.31524 -7.47657,-3.94922 -1.58038,-2.63398 -2.37109,-6.90988 -2.37109,-12.82617 v -1.88477 c 0.12157,-4.90323 0.87223,-8.59061 2.25,-11.0625 1.41829,-2.5124 3.87053,-3.76758 7.35547,-3.76758 z m 319.75586,20.66602 -5.47071,0.24219 c -7.82085,0.28364 -11.73047,3.16224 -11.73046,8.63281 0,4.21435 2.24808,6.32031 6.74609,6.32031 2.87709,0 5.32934,-0.91085 7.35547,-2.73437 2.06667,-1.82353 3.09961,-4.19371 3.09961,-7.11133 z m 1.99218,109.34961 h 49.91797 c -1.51876,12.45827 -12.0814,22.05859 -24.96093,22.05859 -12.87958,0 -23.43899,-9.60032 -24.95704,-22.05859 z"
       style="color:#000000;font-style:normal;font-variant:normal;font-weight:normal;font-stretch:normal;font-size:medium;line-height:normal;font-family:sans-serif;font-variant-ligatures:normal;font-variant-position:normal;font-variant-caps:normal;font-variant-numeric:normal;font-variant-alternates:normal;font-feature-settings:normal;text-indent:0;text-align:start;text-decoration:none;text-decoration-line:none;text-decoration-style:solid;text-decoration-color:#000000;letter-spacing:normal;word-spacing:normal;text-transform:none;writing-mode:lr-tb;direction:ltr;text-orientation:mixed;dominant-baseline:auto;baseline-shift:baseline;text-anchor:start;white-space:normal;shape-padding:0;clip-rule:nonzero;display:inline;overflow:visible;visibility:visible;opacity:1;isolation:auto;mix-blend-mode:normal;color-interpolation:sRGB;color-interpolation-filters:linearRGB;solid-color:#000000;solid-opacity:1;vector-effect:none;fill:#ffffff;fill-opacity:1;fill-rule:nonzero;stroke:none;stroke-width:5.4637599;stroke-linecap:round;stroke-linejoin:round;stroke-miterlimit:4;stroke-dasharray:none;stroke-dashoffset:0;stroke-opacity:1;marker:none;color-rendering:auto;image-rendering:auto;shape-rendering:auto;text-rendering:auto;enable-background:accumulate" />
  </g>
</svg>

<?xml version="1.0" encoding="UTF-8" standalone="no"?>
<svg
   xmlns:svg="http://www.w3.org/2000/svg"
   xmlns="http://www.w3.org/2000/svg"
   id="svg8"
   version="1.1"
   viewBox="0 0 263.31104 119.92635"
   height="119.92635mm"
   width="263.31104mm">
  <g
     transform="translate(50.712433,-79.908707)"
     id="layer1">
    <path
       id="rect4599"
       d="M -50.712433,79.908707 H 212.5986 V 199.83506 H -50.712433 Z"
       style="color:#000000;display:inline;overflow:visible;visibility:visible;opacity:1;fill:#1c4a3b;fill-opacity:1;fill-rule:nonzero;stroke:none;stroke-width:1.7333498;stroke-linecap:round;stroke-linejoin:round;stroke-miterlimit:4;stroke-dasharray:none;stroke-dashoffset:0;stroke-opacity:1;marker:none;enable-background:accumulate" />
    <path
       id="rect4550"
       transform="matrix(0.26458333,0,0,0.26458333,-50.712433,79.908707)"
       d="M 448.51172 75.519531 C 440.18369 75.519531 433.39063 82.308681 433.39062 90.636719 L 433.39062 95.294922 C 433.39062 103.62292 440.18369 110.41016 448.51172 110.41016 L 449.91406 110.41016 L 449.91406 346.72266 C 449.91421 348.23137 451.13777 349.45493 452.64648 349.45508 L 571.66797 349.45508 C 573.22978 365.30509 586.63302 377.74414 602.88477 377.74414 C 619.13647 377.74414 632.54301 365.30509 634.10547 349.45508 L 751.06055 349.45508 C 752.56926 349.45493 753.79282 348.23137 753.79297 346.72266 L 753.79297 110.41016 L 757.26172 110.41016 C 765.58976 110.41016 772.38281 103.62292 772.38281 95.294922 L 772.38281 90.636719 C 772.38281 82.308681 765.58976 75.519531 757.26172 75.519531 L 448.51172 75.519531 z M 448.51172 80.984375 L 757.26172 80.984375 C 762.65737 80.984375 766.91992 85.241103 766.91992 90.636719 L 766.91992 95.294922 C 766.91992 100.6905 762.65737 104.94727 757.26172 104.94727 L 751.06055 104.94727 L 452.64648 104.94727 L 448.51172 104.94727 C 443.1161 104.94727 438.85352 100.6905 438.85352 95.294922 L 438.85352 90.636719 C 438.85352 85.241103 443.1161 80.984375 448.51172 80.984375 z M 615.74805 176.28125 L 639.51562 176.28125 L 639.51562 270.86133 L 615.74805 270.86133 L 615.74805 176.28125 z M 492.53906 188.19531 L 508.09961 188.19531 L 508.09961 201.99414 L 524.99805 201.99414 L 524.99805 219.80273 L 508.09961 219.80273 L 508.09961 246.60938 C 508.09961 251.06683 510.24757 253.29492 514.54297 253.29492 C 517.74425 253.29492 521.57377 252.5042 526.03125 250.92383 L 526.03125 268.24805 C 522.82996 269.62581 519.77114 270.59868 516.85352 271.16602 C 513.97641 271.77384 510.59329 272.07812 506.70312 272.07812 C 498.7202 272.07812 492.96492 270.13235 489.43945 266.24219 C 485.91399 262.3115 484.15234 256.29397 484.15234 248.18945 L 484.15234 219.80273 L 475.82422 219.80273 L 475.82422 210.13867 L 486.40039 202.66211 L 492.53906 188.19531 z M 264.87109 200.77734 C 257.09075 200.77734 250.99118 204.10037 246.57422 210.74609 L 245.48047 210.74609 L 242.13867 201.99414 L 222.80859 201.99414 L 222.80859 300.76758 L 246.57422 300.76758 L 246.57422 273.11133 C 246.57422 271.93617 246.20988 268.93741 245.48047 264.11523 L 246.57422 264.11523 C 249.28923 267.11391 252.02571 269.19987 254.78125 270.375 C 257.53679 271.50964 260.65568 272.07812 264.14062 272.07812 C 271.88044 272.07812 278.00004 268.89721 282.49805 262.53516 C 287.03658 256.13261 289.30664 247.37858 289.30664 236.27539 C 289.30664 225.25323 287.13865 216.58128 282.80273 210.25977 C 278.46682 203.93823 272.48934 200.77734 264.87109 200.77734 z M 344.37695 200.77734 C 340.77044 200.77734 337.18318 201.91236 333.61719 204.18164 C 330.09172 206.41038 327.33717 209.34905 325.35156 212.99609 L 324.19531 212.99609 L 320.48828 201.99414 L 302.80078 201.99414 L 302.80078 270.86133 L 326.56641 270.86133 L 326.56641 237.00586 C 326.56641 232.54836 327.74149 229.14328 330.0918 226.79297 C 332.44211 224.40214 336.21154 223.20703 341.39844 223.20703 C 344.84286 223.20703 347.53734 223.45123 349.48242 223.9375 L 351.60938 201.50781 L 350.27148 201.26367 C 348.40744 200.93949 346.4436 200.77734 344.37695 200.77734 z M 392.15234 200.77734 C 381.25177 200.77734 372.86406 203.89819 366.98828 210.13867 C 361.11251 216.33863 358.17383 225.25283 358.17383 236.88281 C 358.17383 248.1481 361.33473 256.84008 367.65625 262.95898 C 374.0183 269.03737 382.93445 272.07812 394.40234 272.07812 C 399.91341 272.07812 404.65378 271.71377 408.625 270.98438 C 412.59621 270.25498 416.44575 268.93778 420.17383 267.0332 L 420.17383 249.95312 C 416.08105 251.85768 412.27156 253.21493 408.74609 254.02539 C 405.26115 254.79531 401.43164 255.17969 397.25781 255.17969 C 392.67876 255.17969 389.0534 254.0847 386.37891 251.89648 C 383.74494 249.70826 382.34569 246.68947 382.18359 242.83984 L 424.67188 242.83984 L 424.67188 232.26367 C 424.67188 222.09251 421.83527 214.31333 416.16211 208.92383 C 410.52947 203.49378 402.52613 200.77734 392.15234 200.77734 z M 571.80273 200.77734 C 580.63667 200.77734 587.46494 202.96536 592.28711 207.3418 C 597.14982 211.71824 599.58008 217.83783 599.58008 225.69922 L 599.58008 270.86133 L 583.10742 270.86133 L 578.54883 261.74414 L 578.0625 261.74414 C 574.86121 265.71537 571.60019 268.42985 568.27734 269.88867 C 564.95449 271.34747 560.65856 272.07812 555.39062 272.07812 C 548.90703 272.07812 543.80034 270.13235 540.07227 266.24219 C 536.34419 262.35202 534.48047 256.88101 534.48047 249.83008 C 534.48047 242.4955 537.03283 237.04645 542.13867 233.48047 C 547.24452 229.87394 554.64127 227.84808 564.32617 227.40234 L 575.81445 227.03711 L 575.81445 226.06445 C 575.81445 220.39131 573.01789 217.55469 567.42578 217.55469 C 562.40098 217.55469 556.01911 219.25626 548.2793 222.66016 L 541.41016 206.97852 C 549.43363 202.8452 559.56492 200.77734 571.80273 200.77734 z M 649.66602 201.99414 L 676.6543 201.99414 L 687.10938 221.32227 L 697.80664 201.99414 L 724.85547 201.99414 L 703.27734 235.72852 L 725.70703 270.86133 L 698.71875 270.86133 L 687.10938 249.95312 L 675.56055 270.86133 L 648.51172 270.86133 L 670.69727 235.72852 L 649.66602 201.99414 z M 393.00391 216.94727 C 396.0431 216.94727 398.45333 217.94017 400.23633 219.92578 C 402.05986 221.91139 403.01272 224.56386 403.09375 227.88672 L 382.66992 227.88672 C 382.9941 224.1181 384.08908 221.36356 385.95312 219.62109 C 387.85769 217.83809 390.20785 216.94727 393.00391 216.94727 z M 256.17969 219.43945 C 259.38097 219.43945 261.66911 220.73466 263.04688 223.32812 C 264.42464 225.88104 265.11328 230.11691 265.11328 236.0332 C 265.11328 242.07107 264.42464 246.40706 263.04688 249.04102 C 261.66911 251.63448 259.46107 252.92969 256.42188 252.92969 C 253.01798 252.92969 250.52569 251.61445 248.94531 248.98047 C 247.36493 246.34649 246.57422 242.07059 246.57422 236.1543 L 246.57422 234.26953 C 246.69579 229.3663 247.44645 225.67892 248.82422 223.20703 C 250.24251 220.69463 252.69475 219.43945 256.17969 219.43945 z M 575.93555 240.10547 L 570.46484 240.34766 C 562.64399 240.6313 558.73437 243.5099 558.73438 248.98047 C 558.73438 253.19482 560.98246 255.30078 565.48047 255.30078 C 568.35756 255.30078 570.80981 254.38993 572.83594 252.56641 C 574.90261 250.74288 575.93555 248.3727 575.93555 245.45508 L 575.93555 240.10547 z M 577.92773 349.45508 L 627.8457 349.45508 C 626.32694 361.91335 615.7643 371.51367 602.88477 371.51367 C 590.00519 371.51367 579.44578 361.91335 577.92773 349.45508 z "
       style="color:#000000;font-style:normal;font-variant:normal;font-weight:normal;font-stretch:normal;font-size:medium;line-height:normal;font-family:sans-serif;font-variant-ligatures:normal;font-variant-position:normal;font-variant-caps:normal;font-variant-numeric:normal;font-variant-alternates:normal;font-feature-settings:normal;text-indent:0;text-align:start;text-decoration:none;text-decoration-line:none;text-decoration-style:solid;text-decoration-color:#000000;letter-spacing:normal;word-spacing:normal;text-transform:none;writing-mode:lr-tb;direction:ltr;text-orientation:mixed;dominant-baseline:auto;baseline-shift:baseline;text-anchor:start;white-space:normal;shape-padding:0;clip-rule:nonzero;display:inline;overflow:visible;visibility:visible;opacity:1;isolation:auto;mix-blend-mode:normal;color-interpolation:sRGB;color-interpolation-filters:linearRGB;solid-color:#000000;solid-opacity:1;vector-effect:none;fill:#ffffff;fill-opacity:1;fill-rule:nonzero;stroke:none;stroke-width:5.4637599;stroke-linecap:round;stroke-linejoin:round;stroke-miterlimit:4;stroke-dasharray:none;stroke-dashoffset:0;stroke-opacity:1;marker:none;color-rendering:auto;image-rendering:auto;shape-rendering:auto;text-rendering:auto;enable-background:accumulate" />
  </g>
</svg>
